!!!!SEGMENT: Fsc2002-O_pulcherrima_virgo.krn
!!!id: Fsc2002
!!!AGN: Motet
!!!SCT: Seay (1979)
!!!voices: 4
!!!COM: Costanzo Festa
!!!OTL: O pulcherrima virgo
**kern	**kern	**kern	**kern
*part4	*part3	*part2	*part1
*staff4	*staff3	*staff2	*staff1
*I"Bassus	*I"Tenor III	*I"Tenor II	*I"Tenor I
*I'B	*I'T. III	*I'T. II	*I'T. I
*clefF4	*clefGv2	*clefGv2	*clefGv2
*k[]	*k[]	*k[]	*k[]
*C:	*C:	*C:	*C:
*M2/1	*M2/1	*M2/1	*M2/1
*met(C|)	*met(C|)	*met(C|)	*met(C|)
!!section: Prima pars: O pulcherrima virgo
!!!OMD: Prima pars: O pulcherrima virgo
=1	=1	=1	=1
0D	0r	0r	0r
=2	=2	=2	=2
1C	0r	0r	0r
[1D	.	.	.
=3	=3	=3	=3
2D]	0A	0r	0r
2AA	.	.	.
1C	.	.	.
=4	=4	=4	=4
1BB	1G	0r	0d
[1AA	[1A	.	.
=5	=5	=5	=5
1AA]	2A]	0r	1c
.	2E	.	.
1r	1G	.	[1d
=6	=6	=6	=6
0r	1F	0A	2d]
.	.	.	2A
.	[1E	.	1c
=7	=7	=7	=7
0r	1E]	1G	1B
.	1r	[1A	2A
.	.	.	[2c
=8	=8	=8	=8
0r	0r	2A]	2c]
.	.	2E	4B
.	.	.	4A
.	.	1G	1B
=9	=9	=9	=9
0D	0r	0F	1.A
.	.	.	4G
.	.	.	4F
=10	=10	=10	=10
1C	2r	1E	2G
.	2E	.	1A
[1D	2.F	2r	.
.	.	[2A	[2d
.	4D	.	.
=11	=11	=11	=11
2D]	2F	4A]	2d]
.	.	4B	.
2AA	1E	2.c	2c
1C	.	.	1e
.	.	4B	.
.	2C	[2A	.
=12	=12	=12	=12
1BB	1D	2A]	1d
.	.	2G#i	.
1AA;	1E;	1A;	1c#X;
=13	=13	=13	=13
0r	0r	1G	0r
.	.	[1B-X	.
=14	=14	=14	=14
0r	0r	2B-]	1r
.	.	2A	.
.	.	2G	1d
.	.	2G	.
=15	=15	=15	=15
0r	0r	1F	1.f
.	.	2D	.
.	.	2A	2e
=16	=16	=16	=16
1D	0r	1.f	2d
.	.	.	2d
[1F	.	.	1c
.	.	2e	.
=17	=17	=17	=17
2F]	1r	2d	1A
2E	.	2c	.
2D	1A	1f	2r
2D	.	.	2F
=18	=18	=18	=18
1C	1.c	1e	2G
.	.	.	2.A
1AA	.	1r	.
.	.	.	4G
.	2B	.	2E
=19	=19	=19	=19
1r	2A	1.c	1F
.	2A	.	.
[1C	1G	.	1E
.	.	2c	.
=20	=20	=20	=20
2C]	1E	1c	1r
2C	.	.	.
1C	1r	1G	2r
.	.	.	[2E
=21	=21	=21	=21
1AA	1.A	1r	2E]
.	.	.	2E
1r	.	[1c	1F
.	2A	.	.
=22	=22	=22	=22
1.C	1G	2c]	1E
.	.	2c	.
.	1E	1c	1r
2C	.	.	.
=23	=23	=23	=23
1C	1.c	1G	0E
1AA	.	1r	.
.	2c	.	.
=24	=24	=24	=24
1r	1c	2r	1F
.	.	2c	.
1D	1A	1d	4F
.	.	.	4G
.	.	.	4A
.	.	.	4B
=25	=25	=25	=25
2.AA	2r	2e	4c
.	.	.	4d
.	2A	2.c	1e
4BB	.	.	.
2C	2G	.	.
.	.	4B	.
2D	2F	4A	[2d
.	.	4G	.
=26	=26	=26	=26
2AA	2E	1A	2d]
2AA	2E	.	2c#i
1D;	1D;	1A;	1d;
=27	=27	=27	=27
0D	0F	0A	0d
=28	=28	=28	=28
1AA	1E	1A	1c
1D	1F	1A	1d
=29	=29	=29	=29
1C	1G	1c	1e
1F	1D	1A	1d
=30	=30	=30	=30
0E	0G	0B	0e
=31	=31	=31	=31
0AA;	0E;	0A;	0c;
=32	=32	=32	=32
0r	1.A	1.f	1.c
.	2A	2f	2c
=33	=33	=33	=33
0r	1G	1e	1B
.	1F	1d	1A
=34	=34	=34	=34
0r	1.E	1.c	1.G
.	2D	2d	2A
=35	=35	=35	=35
1r	1D	1d	1A
[1F	[1A	[1c	[1f
=36	=36	=36	=36
2F]	2A]	2c]	2f]
2F	2A	2c	2f
1C	1G	1c	1e
=37	=37	=37	=37
1D	1F	1A	1d
1AA	1E	1A	1c
=38	=38	=38	=38
1D	1F	1A	1d
[1GG	[1G	[1B	1d
=39	=39	=39	=39
1GG]	0G]	1B]	2r
.	.	.	1d
1r	.	1r	.
.	.	.	[2B
=40	=40	=40	=40
1GG	1r	1D	4B]
.	.	.	4B
.	.	.	2B
2.GG	1G	2.D	1B
4GG	.	4D	.
=41	=41	=41	=41
2GG	2.G	2D	1B
1GG	.	1D	.
.	4G	.	.
.	2G	.	1d
2GG	[2G	2D	.
=42	=42	=42	=42
1C	2G]	2r	1e
.	2G	1G	.
1GG	1B	.	1g
.	.	[2D	.
=43	=43	=43	=43
0AA	2A	2D]	2f
.	1G	4C	1e
.	.	4BB	.
.	.	1C	.
.	2F#i	.	4d
.	.	.	4c
=44	=44	=44	=44
0GG	0G	0D	0B
=45	=45	=45	=45
0GG	0G	0d	0B
=46	=46	=46	=46
1D	1F	1d	2.A
.	.	.	8GL
.	.	.	8AJ
1D	1F	1f	2B
.	.	.	[2A
=47	=47	=47	=47
0E	1r	2e	2A]
.	.	1d	4G
.	.	.	4F
.	1C	.	1G
.	.	2c	.
=48	=48	=48	=48
0D	0F	0d	1A
.	.	.	1r
=49	=49	=49	=49
1.BB-X	1.B-X	1.d	1.f
2BB-i	2B-i	2d	2f
=50	=50	=50	=50
1C	1G	1c	1e
1D	[1F	1A	2.d
.	.	.	4c
=51	=51	=51	=51
1BB-i	2F]	0B-X	4d
.	.	.	4e
.	2F	.	2f
1GG	2.G	.	2e
.	.	.	[2d
.	4F	.	.
=52	=52	=52	=52
0AA	4E	0A	2d]
.	4D	.	.
.	2F	.	4c#i
.	.	.	4B
.	1E	.	1c#i
=53	=53	=53	=53
0D	2.D	2.F	[0d
.	4E	4G	.
.	2F	2A	.
.	2D	[2B-i	.
=54	=54	=54	=54
0GG	2.G	4B-]	0d_
.	.	4A	.
.	.	4G	.
.	4A	4F	.
.	1B	1G	.
=55	=55	=55	=55
0D;	0A;	0F;	0d;]
=56	=56	=56	=56
0F	0r	0r	0r
=57	=57	=57	=57
1E	0r	0c	0r
1F	.	.	.
=58	=58	=58	=58
1D	1r	1B	0r
[1F	[1c	1c	.
=59	=59	=59	=59
2F]	1c]	1A	0f
2E	.	.	.
1D	1B	2r	.
.	.	2F	.
=60	=60	=60	=60
1C	1c	2G	1e
.	.	2A	.
1r	1A	[1D	1f
=61	=61	=61	=61
0r	1.f	1D]	1d
.	.	1d	[1f
.	2e	.	.
=62	=62	=62	=62
0r	2d	2B	2f]
.	1c	2c	2e
.	.	1G	1d
.	2B	.	.
=63	=63	=63	=63
0F	1c	2A	0c
.	.	1F	.
.	1r	.	.
.	.	4E	.
.	.	4D	.
=64	=64	=64	=64
1E	0c	1C	0r
1F	.	1r	.
=65	=65	=65	=65
1D	1B	1r	0r
[1F	1c	[1c	.
=66	=66	=66	=66
2F]	1A	1c]	0f
2E	.	.	.
1D	2r	1B	.
.	2F	.	.
=67	=67	=67	=67
1C	2G	1c	1e
.	2A	.	.
1r	[1D	1A	1f
=68	=68	=68	=68
0r	1D]	1.f	1d
.	1d	.	[1f
.	.	2e	.
=69	=69	=69	=69
0r	2B	2d	2f]
.	2c	1c	2e
.	1G	.	1d
.	.	2B	.
=70	=70	=70	=70
0F	2A	1c	2.c
.	1F	.	.
.	.	.	4B
.	.	1r	2A
.	4E	.	4G
.	4D	.	4F
=71	=71	=71	=71
1E	1C	0c	1G
1F	2r	.	1F
.	2c	.	.
=72	=72	=72	=72
1D	1d	1B	1.f
[1F	2c	2c	.
.	[2A	2c	2e
=73	=73	=73	=73
2F]	2A]	2d	2d
2E	2.G	2e	1c
1D	.	1f	.
.	8FL	.	.
.	8EJ	.	.
.	2F	.	2B
=74	=74	=74	=74
0C;	0G;	0e;	0c;
=	=	=	=
*M3/1	*M3/1	*M3/1	*M3/1
*met(C|3)	*met(C|3)	*met(C|3)	*met(C|3)
0D	0d	0f	0A
1D	1d	1f	1A
=75	=75	=75	=75
1D	1A	1F	1d
1AA	1A	1E	1c
1F	1A	1F	1A
=76	=76	=76	=76
1E	1G	1G	1B
0D	0F	0A	0d
=77	=77	=77	=77
0AA	0E	0A	0c
1r	1r	1r	1r
=78	=78	=78	=78
0D	0F	0A	0d
1D	1F	1A	1d
=79	=79	=79	=79
1D	1F	1A	1d
1AA	1E	1A	1c
1F	1F	1A	1A
=80	=80	=80	=80
1E	1G	1G	1B
0D	0A	0F	0d
=81	=81	=81	=81
0AA	0A	0E	0c
1r	1r	1r	1r
=82	=82	=82	=82
0FF	0A	0c	0f
1FF	1A	1c	1f
=83	=83	=83	=83
0C	0G	0c	0e
1D	1F	1A	1d
=84	=84	=84	=84
1GG	1G	1B	1d
0AA	0E	0A	0c#i
=85	=85	=85	=85
0D	0D	0A	0d
1r	1r	1r	1r
=86	=86	=86	=86
0FF	0A	0c	0f
1FF	1A	1c	1f
=87	=87	=87	=87
0C	0G	0c	0e
1D	1F	1A	1d
=88	=88	=88	=88
1GG	1G	1B	1d
0AA	0E	0A	0c#i
=89	=89	=89	=89
0.D	0.D	0.A	0.d
=90	=90	=90	=90
00Dl	00Dl	00Al	00dl
==	==	==	==
*-	*-	*-	*-
!!!system-decoration: [*]
!!!RDF**kern: i = editorial accidental
!!!RDF**kern: l = terminal long
!!!ENC: Benjamin Ory
!!!END: 2022/2/12
!!!EED: Benjamin Ory
!!!EEV: 2022/02/12
!!!YEC: Copyright 2022 Benjamin Ory, All Rights Reserved
!!!ONB: Translated from MusicXML on 2022/02/12
